projects/plugins/jetpack/images/products/product-jetpack-videopress.svg

<svg fill="none" height="128" viewBox="0 0 128 128" width="128" xmlns="http://www.w3.org/2000/svg"><rect fill="#2c3338" height="104" rx="12.1905" width="103.91" x="12.1904" y="12.1905"/><path clip-rule="evenodd" d="m40.859 46.6905c2.5311 0 4.7549 1.6715 5.448 4.0949l6.8522 23.9611c.0069.0242.0181.0464.0326.0657l8.1178-28.1217h4.5412 12.5534c8.7986 0 14.6967 5.6986 14.6967 14.3257 0 8.726-6.0528 14.1674-15.0835 14.1674h-5.956-7.675l-1.491 4.5945c-1.3372 4.1204-5.1908 6.9124-9.5405 6.9124-4.3498 0-8.2033-2.792-9.5405-6.9124l-8.3455-25.7154c-1.1818-3.6415 1.5459-7.3722 5.3901-7.3722zm26.3015 19.9452h8.6911c3.7708 0 6.0334-2.1568 6.0334-5.6195 0-3.4825-2.2626-5.5403-6.0334-5.5403h-5.0693z" fill="#fff" fill-rule="evenodd"/></svg>

<svg width="128" height="128" viewBox="0 0 128 128" fill="none" xmlns="http://www.w3.org/2000/svg">
<rect x="12.1904" y="12.1905" width="103.91" height="104" rx="12.1905" fill="#2C3338"/>
<path fill-rule="evenodd" clip-rule="evenodd" d="M40.859 46.6905C43.3901 46.6905 45.6139 48.362 46.307 50.7854L53.1592 74.7465C53.1661 74.7707 53.1773 74.7929 53.1918 74.8122L61.3096 46.6905H65.8508H78.4042C87.2028 46.6905 93.1009 52.3891 93.1009 61.0162C93.1009 69.7422 87.0481 75.1836 78.0174 75.1836H72.0614H64.3864L62.8954 79.7781C61.5582 83.8985 57.7046 86.6905 53.3549 86.6905C49.0051 86.6905 45.1516 83.8985 43.8144 79.7781L35.4689 54.0627C34.2871 50.4212 37.0148 46.6905 40.859 46.6905ZM67.1605 66.6357H75.8516C79.6224 66.6357 81.885 64.4789 81.885 61.0162C81.885 57.5337 79.6224 55.4759 75.8516 55.4759H70.7823L67.1605 66.6357Z" fill="white"/>
</svg>
